src/assets/images/icon-prev.svg

<svg fill="none" height="29" viewBox="0 0 30 29" width="30" xmlns="http://www.w3.org/2000/svg"><path d="m29.0832 24.84-10.7567-10.5946 10.7567-10.5945-3.3043-3.254534-14.0611 13.849034 14.0611 13.8491zm-24.39597 3.2545h-4.68702591v-27.698134h4.68702591z" fill="#fff"/></svg>

<svg width="30" height="29" viewBox="0 0 30 29" fill="none" xmlns="http://www.w3.org/2000/svg">
<path d="M29.0832 24.84L18.3265 14.2454L29.0832 3.6509L25.7789 0.396366L11.7178 14.2454L25.7789 28.0945L29.0832 24.84ZM4.68723 28.0945H0.000204086L0.000204086 0.396366H4.68723L4.68723 28.0945Z" fill="white"/>
</svg>
